dist/intermediate-svg/spares.svg

<?xml version="1.0" encoding="utf-8"?><svg width="12" height="12" fill="none" xmlns="http://www.w3.org/2000/svg" viewBox="0 0 12 12"><path d="M7.35802 6.14938C7.50667 5.88849 7.61815 5.62761 7.69248 5.32946L8.733 5.06857C8.80732 5.0313 8.88165 4.99402 8.88165 4.91948C8.88165 4.77041 8.91881 4.62135 8.91881 4.47227C8.91881 4.3232 8.91881 4.17412 8.88165 4.02504C8.88165 3.9505 8.80732 3.87596 8.733 3.87596L7.69248 3.61507C7.61815 3.31692 7.50667 3.05605 7.35802 2.79517L7.91545 1.86345C7.95261 1.78891 7.95261 1.71436 7.91545 1.63982C7.72964 1.41621 7.50667 1.19259 7.2837 1.00624C7.20937 0.968975 7.13505 0.968975 7.06072 1.00624L6.13168 1.56528C5.87155 1.4162 5.61142 1.30441 5.31413 1.22987L5.05399 0.186345C5.01683 0.111807 4.97967 0.0372599 4.90535 0.0372599C4.7567 0.0372599 4.60805 0 4.4594 0C4.31076 0 4.16212 -9.09942e-06 4.01347 0.0372599C3.93915 0.0372599 3.86481 0.111807 3.86481 0.186345L3.60469 1.22987C3.3074 1.30441 3.04726 1.4162 2.78713 1.56528L1.85809 1.00624C1.78376 0.968975 1.70944 0.968975 1.63511 1.00624C1.41214 1.19259 1.18918 1.41621 1.00337 1.63982C0.966209 1.71436 0.966209 1.78891 1.00337 1.86345L1.5608 2.79517C1.41215 3.05605 1.30067 3.31692 1.22634 3.61507L0.185809 3.87596C0.111485 3.91323 0.037164 3.9505 0.037164 4.02504C0.037164 4.17412 0 4.3232 0 4.47227C0 4.62135 2.26762e-06 4.77041 0.037164 4.91948C0.037164 4.99402 0.111485 5.06857 0.185809 5.06857L1.22634 5.32946C1.30067 5.62761 1.41215 5.88849 1.5608 6.14938L1.00337 7.0811C0.966209 7.15564 0.966209 7.23017 1.00337 7.30471C1.18918 7.52832 1.41214 7.75194 1.63511 7.93828C1.70944 7.97555 1.78376 7.97555 1.85809 7.93828L2.78713 7.37925C3.04726 7.52832 3.3074 7.64012 3.60469 7.71466L3.86481 8.7582C3.90198 8.83274 3.93915 8.90727 4.01347 8.90727C4.16212 8.90727 4.31076 8.94455 4.4594 8.94455C4.60805 8.94455 4.7567 8.94454 4.90535 8.90727C4.97967 8.90727 5.05399 8.83274 5.05399 8.7582L5.31413 7.71466C5.61142 7.64012 5.87155 7.52832 6.13168 7.37925L7.06072 7.93828C7.13505 7.97555 7.20937 7.97555 7.2837 7.93828C7.50667 7.75194 7.72964 7.52832 7.91545 7.30471C7.95261 7.23017 7.95261 7.15564 7.91545 7.0811L7.35802 6.14938ZM4.49657 6.03755C3.64185 6.03755 2.93577 5.32946 2.93577 4.47227C2.93577 3.61509 3.64185 2.90697 4.49657 2.90697C5.35129 2.90697 6.05736 3.61509 6.05736 4.47227C6.05736 5.32946 5.35129 6.03755 4.49657 6.03755ZM11.8174 9.5781C11.8174 9.50356 11.7431 9.42903 11.6688 9.39176L11.2228 9.27996C11.1857 9.13088 11.1485 9.01907 11.0742 8.90727L11.2972 8.53458C11.3343 8.46004 11.3343 8.38551 11.2972 8.31097C11.2228 8.23643 11.1857 8.1619 11.1113 8.12463C11.037 8.08736 10.9627 8.05009 10.8884 8.12463L10.5168 8.34823C10.4053 8.27369 10.2566 8.23644 10.1452 8.19917L10.0337 7.75194C9.9965 7.6774 9.95934 7.60285 9.84785 7.60285C9.77353 7.60285 9.66205 7.60285 9.58773 7.60285C9.5134 7.60285 9.43908 7.6774 9.40192 7.75194L9.29043 8.19917C9.14178 8.23644 9.03029 8.27369 8.91881 8.34823L8.54719 8.12463C8.47287 8.08736 8.39854 8.08736 8.32422 8.12463C8.2499 8.19917 8.17557 8.23643 8.13841 8.31097C8.10125 8.38551 8.06409 8.46004 8.13841 8.53458L8.36138 8.90727C8.28706 9.01907 8.2499 9.16815 8.21274 9.27996L7.76679 9.39176C7.69247 9.42903 7.61815 9.4663 7.61815 9.5781C7.61815 9.65264 7.61815 9.76445 7.61815 9.83899C7.61815 9.91353 7.69247 9.98807 7.76679 10.0253L8.21274 10.1371C8.2499 10.2862 8.28706 10.398 8.36138 10.5098L8.13841 10.8825C8.10125 10.9571 8.10125 11.0316 8.13841 11.1061C8.21273 11.1807 8.2499 11.2552 8.32422 11.2925C8.39854 11.3298 8.47287 11.367 8.54719 11.2925L8.91881 11.0689C9.03029 11.1434 9.17894 11.1807 9.29043 11.2179L9.40192 11.6652C9.43908 11.7397 9.47624 11.8142 9.58773 11.8142C9.66205 11.8142 9.77353 11.8142 9.84785 11.8142C9.92218 11.8142 9.9965 11.7397 10.0337 11.6652L10.1452 11.2179C10.2938 11.1807 10.4053 11.1434 10.5168 11.0689L10.8884 11.2925C10.9627 11.3298 11.037 11.3298 11.1113 11.2925C11.1857 11.218 11.26 11.1807 11.2972 11.1061C11.3343 11.0316 11.3715 10.9571 11.2972 10.8825L11.0742 10.5098C11.1485 10.398 11.1857 10.2489 11.2228 10.1371L11.6688 10.0253C11.7431 9.98807 11.8174 9.9508 11.8174 9.83899C11.8174 9.76445 11.8174 9.68991 11.8174 9.5781ZM9.69921 10.5098C9.25327 10.5098 8.91881 10.1371 8.91881 9.72719C8.91881 9.27996 9.29043 8.94455 9.69921 8.94455C10.1451 8.94455 10.4796 9.31723 10.4796 9.72719C10.4796 10.1744 10.1451 10.5098 9.69921 10.5098Z" fill="#0094FF"/></svg>

<?xml version="1.0" encoding="utf-8"?><svg width="12" height="12" fill="none" xmlns="http://www.w3.org/2000/svg" viewBox="0 0 12 12"><path d="M7.358 6.15c.149-.262.26-.522.334-.82l1.041-.261c.074-.038.149-.075.149-.15 0-.149.037-.298.037-.447 0-.149 0-.298-.037-.447 0-.075-.075-.149-.149-.149l-1.04-.26a3.169 3.169 0 00-.335-.82l.557-.933a.238.238 0 000-.223 5.08 5.08 0 00-.631-.634.236.236 0 00-.223 0l-.93.56a3.15 3.15 0 00-.817-.336L5.054.186C5.017.112 4.98.037 4.905.037 4.757.037 4.608 0 4.46 0c-.148 0-.297 0-.446.037-.074 0-.148.075-.148.15l-.26 1.043a3.15 3.15 0 00-.818.335l-.929-.559a.236.236 0 00-.223 0 5.08 5.08 0 00-.632.634.238.238 0 000 .223l.558.932c-.149.261-.26.522-.335.82l-1.04.261c-.075.037-.149.075-.149.149 0 .15-.037.298-.037.447 0 .15 0 .298.037.447 0 .075.074.15.149.15l1.04.26c.075.299.186.56.335.82l-.558.932a.238.238 0 000 .224c.186.223.41.447.632.633a.236.236 0 00.223 0l.93-.559c.26.15.52.261.817.336l.26 1.043c.037.075.074.15.148.15.15 0 .298.037.446.037.15 0 .298 0 .446-.038.075 0 .149-.074.149-.149l.26-1.043a3.15 3.15 0 00.818-.336l.929.56a.236.236 0 00.223 0 5.08 5.08 0 00.631-.634.238.238 0 000-.224l-.557-.932zm-2.861-.112c-.855 0-1.561-.709-1.561-1.566 0-.857.706-1.565 1.56-1.565.855 0 1.561.708 1.561 1.565s-.706 1.566-1.56 1.566zm7.32 3.54c0-.074-.074-.149-.148-.186l-.446-.112a1.117 1.117 0 00-.149-.373l.223-.372a.239.239 0 000-.224c-.074-.075-.111-.15-.186-.186-.074-.038-.148-.075-.223 0l-.371.223c-.112-.074-.26-.112-.372-.149l-.111-.447c-.038-.075-.075-.15-.186-.15h-.26c-.075 0-.149.075-.186.15l-.112.447a1.11 1.11 0 00-.371.15l-.372-.224a.236.236 0 00-.223 0c-.074.074-.148.111-.186.186-.037.075-.074.149 0 .224l.223.372c-.074.112-.111.261-.148.373l-.446.112c-.075.037-.149.074-.149.186v.261c0 .075.074.15.149.186l.446.112c.037.15.074.261.148.373l-.223.373a.238.238 0 000 .223c.075.075.112.15.186.187.075.037.149.074.223 0l.372-.224c.111.074.26.112.371.149l.112.447c.037.075.074.15.186.15h.26c.074 0 .148-.075.186-.15l.111-.447a1.11 1.11 0 00.372-.15l.371.225a.236.236 0 00.223 0c.075-.075.149-.112.186-.187.037-.074.074-.149 0-.223l-.223-.373c.075-.112.112-.261.149-.373l.446-.112c.074-.037.148-.074.148-.186v-.26zM9.7 10.51a.786.786 0 01-.78-.783c0-.447.371-.782.78-.782.446 0 .78.372.78.782a.763.763 0 01-.78.783z" fill="#0094FF"/></svg>
